X: 1
T: Maureen Martin's
R: jig
M: 6/8
L: 1/8
K: Cmaj
|:B|AGF FCB,|A,CF ABc|BBA BGF|EGE ccB|
AGF FCB,|A,CF ABc|BBA BGF|EGE F2:|
|:B|AFA cag|fdd d2c|dcB Bgf|ec_c =c2 B|
AGF cca|BAGg2f|e2c efg|fgf f2:|

